X:856
T:Roving Bachelor, The
R:reel
Z:id:hn-reel-856
M:C|
L:1/8
K:G
~B3A B2ge | d2ge dBGA | ~B3A B2ge |1 dBAc BGGA :|2 dBAc BGG2 ||
|: gfed edBd | gfed e2ef |1 gfed efge | afge d2ef :|2 gbag fage | d2ge dBGA ||
P:variations
|: ~B3A Bdge | dege dBGA | ~B3A Bdge |1 dBAc BGGA :|2 dBAc BGGf ||
|: gfed ed (3Bcd | gfed e2ef |1 gfed efge | a2ge dfaf :|2 gbag fage | d2ge dBGA ||

